X: 1069
T: Amaryllis Schottische, The
R: barndance
M: 4/4
K: Gmajor
|:Bd|g2 d2 B2 Gg|f2 e2 c4|d2 f>e c2 A2|d2 gd B2 Gd|
g2 d2 B2 Bd|f2 e2 c2 ^c2|d2 fe dcBA|G2 g2 G2:|
|:G^G|A2 d2 d^cdf|a2 f2 f^efa|g2 e2 e^deg|f2 d2 d^cdB|
A2 d2 d^cdf|a2 f2 f^efa|1 g2 e2 egfe|d2 ^c2 B2:|
[2 g2 e2 egfe|d2 ^c2 =c2||

